!!!!SEGMENT: pl-kk--kk-i-11--011_anonim--cantare-amantis-es.krn
!!!cenid: 16xx:1250
!!!COM: Anonim
!!!COM-rismid: pe30004985
!!!CDT:
!!!CNT:
!!!OTL: Cantare amantis es
!!!PDT:
!!!AGN: Sacred
!!!SMS-siglum: PL-Kk
!!!SMS-shelfmark: Kk.I.11
!!!SMS-shelfwork: 011 W
!!!SMS-variant:
!!!SMS-altvar:
!!!NIFC-rismid: 1001154161
!!!URL-scan: http://repozytorium.nifc.pl/skany/pl-kk-nut--i-11
!!!ONB-nifc: UWAGA: S (skan 0020), B (0021).
**kern	**text	**kern	**text
*part2	*part2	*part1	*part1
*staff2	*staff2	*staff1	*staff1
*I"Baſſus	*	*I"[Sopran]	*
*I'B	*	*I'S	*
*clefF4	*	*clefC1	*
*k[]	*	*k[]	*
*C:	*	*C:	*
*M2/1	*	*M2/1	*
!!LO:TX:t=P:problem:niepewna interpretacja rytmiczna
1r	.	0r	.
=1-	=1-	=1-	=1-
1C	Can-	.	.
1G	-ta-	1r	.
=2-	=2-	=2-	=2-
2E\	-re	1g	can-
2E\	a-	.	.
1A	-man-	1cc	-ta-
=3-	=3-	=3-	=3-
1G	-tis	2b\	-re
.	.	2g/	a-
2C/	e(st)	2.g/	-man-
2E\	a-	.	.
.	.	8f/L	.
.	.	8g/J	.
=4-	=4-	=4-	=4-
2F\	-man-	2a\	.
2G\	-tis	2b\	-tis
1C	e(st)	1cc	eſt
=5-	=5-	=5-	=5-
!LO:TX:a:t=4	!	!LO:LB:g=original	!
00r	.	00r	.
=6-	=6-	=6-	=6-
.	.	.	.
=7-	=7-	=7-	=7-
2r	.	1r	.
*	*ij	*	*
2GG/	Can-	.	.
1C	-ta-	2r	.
*	*	*	*ij
.	.	2c/	can-
=8-	=8-	=8-	=8-
*	*	*lig	*
2BB/	.	1g	-ta-
2C/	.	.	.
1AA	.	1a	.
*	*	*Xlig	*
=9-	=9-	=9-	=9-
2GG/	re	2d/	-re
2GG/	a-	2dd\	a-
2.C/	-man-	1cc	-man-
4D/	.	.	.
=10-	=10-	=10-	=10-
1E	-tis	1b	-tis
2AA/	est	1a	eſt
*	*Xij	*	*Xij
2AA/	can-	.	.
=11-	=11-	=11-	=11-
4A\	-ta-	00r	.
4G\	.	.	.
!LO:LB:g=original	!	!	!
4A\	.	.	.
!LO:TX:t=P:problem:# above	!	!	!
4F#X\	.	.	.
2G\	.	.	.
1E\	-re	.	.
=12-	=12-	=12-	=12-
.	.	.	.
2D/	a-	.	.
4.E\	-man-	.	.
8F\	.	.	.
1G\	-tis	.	.
=13-	=13-	=13-	=13-
.	.	2r	.
2F\	e(st)	2dd\	a-
1G	a-	2.b\	-man-
.	.	8a\L	.
.	.	8b\J	.
=14-	=14-	=14-	=14-
1C	-man-	4cc\	.
.	.	4b\	.
.	.	4a\	.
.	.	4g\	.
1D	.	1f	.
=15-	=15-	=15-	=15-
1AA	-tis	1e	-tis
1D	e(st)	1d	e(st)
=16-	=16-	=16-	=16-
1G	Vox	1r	.
1r	.	1g	Vox
=17-	=17-	=17-	=17-
1r	.	1r	.
*	*ij	*	*ij
1C	Vox	1g	Vox
*	*Xij	*	*Xij
=18-	=18-	=18-	=18-
1r	.	1r	.
1.G	hu-	2r	.
.	.	2dd\	hu-
=19-	=19-	=19-	=19-
.	.	2b\	-i(uſ)
2C/	.	2ee\	Can-
2D/	-i(us)	4dd\	-to-
.	.	4cc\	.
2D/	can-	4b\	.
.	.	4a\	.
!	!	!LO:LB:g=original	!
=20-	=20-	=20-	=20-
2.E\	-to-	2.g/	.
8D/L	.	8f/L	.
8C/J	.	8e/J	.
*lig	*	*lig	*
1D	.	1f	.
=21-	=21-	=21-	=21-
1AA	.	1e	.
*Xlig	*	*Xlig	*
1D	-ris	1f#X	-ris
=22-	=22-	=22-	=22-
1r	.	1r	.
!LO:LB:g=original	!	!	!
2r	.	2r	.
2GG/	fer-	2g/	fer-
=23-	=23-	=23-	=23-
2AA/	-vor	4e/	-vor
.	.	4f/	eſt
2BB/	e(st)	2d/	S(an)-
2C/	S(an)-	4c/	-cti
.	.	4c/	a-
4AA/	-cti	2cc\	-mo-
4AA/	a-	.	.
=24-	=24-	=24-	=24-
2GG/	-mo-	2b\	-ris
2GG/	-ris	4r	.
*	*	*	*ij
.	.	4dd\	fer-
2r	.	4b\	-vor
.	.	4cc\	eſt
*	*ij	*	*
2D\	fer-	2a\	S(an)-
=25-	=25-	=25-	=25-
2E\	-vor	2g\	.
2F\	est	2a\	-cti
2G\	S(an)-	2b\	a-
4E\	-cti	2cc#X\	-mo-
4E\	a-	.	.
=26-	=26-	=26-	=26-
1D	-mo-	1dd	.
1C	-ris	1g	-ris
*	*Xij	*	*Xij
=27-	=27-	=27-	=27-
*M3/1	*	*M3/1	*
1C	a-	1g	a-
1C	-me-	1g	-me-
1GG	-m(us)	1g	-m(us)
!	!	!LO:LB:g=original	!
=28-	=28-	=28-	=28-
1.C	D(o)-	1.g	D(o)-
2C/	-m(i)-	2g/	-m(i)-
1C	-n(um)	1e	-n(um)
=29-	=29-	=29-	=29-
*col	*	*col	*
1BB	a-	1g	a-
0AA	-me-	0a	-me-
*Xcol	*	*Xcol	*
=30-	=30-	=30-	=30-
0.GG	-m(us)	0.d	-m(us)
!LO:LB:g=original	!	!	!
=31-	=31-	=31-	=31-
*	*ij	*	*ij
1C	a-	1e	a-
1C	-me-	1e	-me-
1C	-m(us)	1g	-m(us)
=32-	=32-	=32-	=32-
1.F	D(o)-	1.a	D(o)-
2F\	-m(i)-	2a\	-m(i)-
1F	-n(um)	1a	-n(um)
=33-	=33-	=33-	=33-
*col	*	*col	*
1C	a-	1g	a-
0GG	-me-	0g	-me-
*Xcol	*	*Xcol	*
=34-	=34-	=34-	=34-
0.C	-m(us)	0.g	-m(us)
=35-	=35-	=35-	=35-
1C	a-	1g	a-
1AA	-me-	1cc	-me-
1E	-m(us)	1b	-m(us)
=36-	=36-	=36-	=36-
1.AA	D(o)-	1.cc#X	D(o)-
2AA/	-m(i)-	2cc#\	-m(i)-
1AA	-n(um)	1cc#	-n(um)
=37-	=37-	=37-	=37-
*col	*	*col	*
1D	a-	1dd	a-
0AA	-me-	0cc#	-me-
*Xcol	*	*Xcol	*
=38-	=38-	=38-	=38-
0.D	-m(us)	0.dd	-m(us)
*	*	*	*Xij
!	!	!LO:PB:g=original	!
=39-	=39-	=39-	=39-
!	!	!LO:TX:t=P:problem:defekt źródła	!
1GG	a-	1%3ryy	.
1GG	-me-	.	.
1C	-m(us)	.	.
=40-	=40-	=40-	=40-
1.F	D(o)-	1%3ryy	.
2F\	-m(i)-	.	.
1F	-n(um)	.	.
=41-	=41-	=41-	=41-
*col	*	*	*
1C	a-	1%3ryy	.
0GG	-me-	.	.
*Xcol	*	*	*
=42-	=42-	=42-	=42-
0C	-m(us)	1%3ryy	.
*	*Xij	*	*
1C	a-	.	.
=43-	=43-	=43-	=43-
*M2/1	*	*M2/1	*
1GG	-mem(us)	0ryy	.
1G	Vox	.	.
=44-	=44-	=44-	=44-
0r	.	0ryy	.
=45-	=45-	=45-	=45-
*	*ij	*	*
1C	Vox	0ryy	.
*	*Xij	*	*
1r	.	.	.
=46-	=46-	=46-	=46-
*	*ij	*	*
1.G	Vox	0ryy	.
*	*Xij	*	*
2C/	hu-	.	.
=47-	=47-	=47-	=47-
2D/	-ius	0ryy	.
2D/	can-	.	.
2.E\	-to-	.	.
8D\L	.	.	.
8C\J	.	.	.
=48-	=48-	=48-	=48-
*lig	*	*	*
1D	.	0ryy	.
1AA	.	.	.
*Xlig	*	*	*
=49-	=49-	=49-	=49-
1D	-ris	0ryy	.
1r	.	.	.
=50-	=50-	=50-	=50-
2r	.	0ryy	.
2GG/	fer-	.	.
2AA/	-vor	.	.
2BB/	e(st)	.	.
=51-	=51-	=51-	=51-
2C/	S(an)-	0ryy	.
4AA/	-cti	.	.
4AA/	a-	.	.
2GG/	-mo-	.	.
2GG/	-ris	.	.
=52-	=52-	=52-	=52-
2r	.	0ryy	.
*	*ij	*	*
2D\	fer-	.	.
2E\	-vor	.	.
2F\	est	.	.
=53-	=53-	=53-	=53-
2G\	S(an)-	0ryy	.
4E\	-cti	.	.
4E\	a-	.	.
!LO:LB:g=original	!	!	!
1D	-mo-	.	.
=54-	=54-	=54-	=54-
1C	-ris	1ryy	.
*	*Xij	*	*
=55||	=55-	=55||	=55-
*M3/1	*	*M3/1	*
1C	a-	1%3ryy	.
1C	-me-	.	.
!LO:TX:b:i:t=ut sup(ra)	!	!	!
1GG	-m(us)	.	.
=-	=-	=-	=-
*-	*-	*-	*-
!!!system-decoration: [(s1,s2)]
!!!ENC: Kamil Watkowski
!!!END: 2021-07-10
